!!!!SEGMENT: pl-wtm--r-2548--008_hertz-michal--jak-wam-sie-podoba-no-8.krn
!!!cenid: 18xx:3115
!!!COM: Hertz, Michał
!!!COM-rismID: pe41023359
!!!CDT: 1844/09/28-~1918
!!!CNT: Polish
!!!GTL: Jak wam się podoba
!!!OTL: No. 8
!!!OMV: 008
!!!PDT:
!!!AGN:
!!!SMS-siglum: PL-Wtm
!!!SMS-shelfmark: R 2548
!!!SMS-shelfwork: 001-008 G
!!!SMS-variant:
!!!SMS-altvar:
!!!NIFC-rismSourceID: 1001082244
!!!NIFC-rismChildID: 1001082244
!!!NIFC-islandoraID:
!!!URL-pdf-islandora:
!!!URL-scan:
!!!ONB-nifc:
!!!OMD: Andante amoroso.
!!!AIN: 1 piano 1 vox
!!!key: a
**kern	**kern	**dynam	**kern	**text	**text	**dynam
*part2	*part2	*part2	*part1	*part1	*part1	*part1
*staff3	*staff2	*	*staff1	*staff1	*staff1	*
*I"[Piano]	*I"[Piano]	*	*I"[Voce]	*	*	*
*Ipiano	*Ipiano	*	*Ivox	*	*	*
*ICklav	*ICklav	*	*ICvox	*	*	*
*IGacmp	*IGacmp	*	*IGsolo	*	*	*
*clefF4	*clefG2	*	*clefG2	*	*	*
*k[]	*k[]	*	*k[]	*	*	*
*a:	*a:	*	*a:	*	*	*
*M6/8	*M6/8	*	*M6/8	*	*	*
*all\right	*all\right	*	*all\right	*	*	*
*>[A,B,B,C]	*>[A,B,B,C]	*	*>[A,B,B,C]	*	*	*
=1	=1	=1	=1	=1	=1	=1
*>A	*>A	*	*>A	*	*	*
*^	*^	*	*	*	*	*
8r	[4.AA\	4rff	8r	p	2.r	.	.	.
8E/L 8A	.	.	8c#X\L 8e 8a 8cc#X	.	.	.	.	.
8E/J 8A	.	8r	8c#\J 8e 8a 8cc#	.	.	.	.	.
8F#X\L 8A	8AA\]	8r	8c#\ 8f#X 8a 8cc#	.	.	.	.	.
8A\ 8f#X 8a	8rFF	8cc#/L 8ff#X 8aa 8ccc#X	4ryy	<	.	.	.	.
8A\J 8f# 8a	8rFF	8cc#/J 8ff# 8aa 8ccc#	.	[[	.	.	.	.
*v	*v	*	*	*	*	*	*	*
=2	=2	=2	=2	=2	=2	=2	=2
*2\right	*	*2\right	*	*	*	*	*
2.A\ 2.e 2.a	8ccc#X/L	2.cc#X\ 2.ee 2.aa	sf	2.r	.	.	.
.	(<8.fff#X/	.	.	.	.	.	.
.	16eee/Jk)	.	.	.	.	.	.
.	(<8eee/L	.	.	.	.	.	.
.	8ccc#/J)	.	.	.	.	.	.
.	8r	.	.	.	.	.	.
=3!|:	=3!|:	=3!|:	=3!|:	=3!|:	=3!|:	=3!|:	=3!|:
*>B	*>B	*	*>B	*	*	*	*
*^	*	*	*	*	*	*	*
8r	[4.AA\	4rff	8r	pp	2.r	.	.	.
8E/L 8A	.	.	8cn\L 8e 8a 8ccn	.	.	.	.	.
8E/J 8A	.	8r	8c\J 8e 8a 8cc	.	.	.	.	.
8E\L 8A	8AA\]	8r	8c\ 8fn 8a 8cc	.	.	.	.	.
8A\ 8fn 8a	8r	8cc/L 8ffn 8aa 8cccn	4ryy	<	.	.	.	.
8A\J 8f 8a	8r	8cc/J 8ff 8aa 8ccc	.	[[	.	.	.	.
*v	*v	*	*	*	*	*	*	*
=4	=4	=4	=4	=4	=4	=4	=4
2.A\ 2.e 2.a	8ccc/L	2.cc\ 2.ee 2.aa	.	4r	.	.	.
.	(<8.fff/	.	.	.	.	.	.
.	.	.	.	8r	.	.	.
.	16eee/Jk)	.	.	.	.	.	.
.	(<8eee/L	.	.	8r	.	.	.
.	8ccc/J)	.	.	8r	.	.	.
.	8ryy	.	.	8e/	1) Ein	2) Und	.
*	*v	*v	*	*	*	*	*
!!LO:LB:g=original
=5	=5	=5	=5	=5	=5	=5
!	!	!LO:DY:rj	!	!	!	!
[2.AA\ [2.A	(>4c/ 4e 4a	p	4a/	Lieb-	zwi-	.
.	8d/ 8e 8b	.	8b\	-ster	-schen	.
.	4c/ 4e 4a	.	4a/	und	Hal-	.
.	8c/) 8e 8g#X	.	8g#X/	sein	-men	.
=6	=6	=6	=6	=6	=6	=6
2.AA\] 2.A]	(8c\L 8e 8a	.	(8a\L	Mä-	auf	.
.	8d\ 8e 8b	.	8b\J)	.	.	.
.	8e\J 8a 8cc	.	8cc\	-del	dem	.
.	4a\ 4cc 4ee	.	4ee\	schön,	Rain,	.
.	8e\) 8a 8cc	.	8cc\	die	legt	.
=7	=7	=7	=7	=7	=7	=7
*	*^	*	*	*	*	*
[2.D\ [2.A	(4b/	[4.f\	.	4b\	thä-	sich	.
.	8a/	.	.	8a/	-ten	das	.
.	8ryy	8f\L] 8a	.	(8a/L	durch	hüb-	.
.	4ryy	(<8e\ 8g	.	8g/J)	.	.	.
.	.	8f\J)) 8a	.	8a/	das	-sche	.
*	*v	*v	*	*	*	*	*
=8	=8	=8	=8	=8	=8	=8
2.D\] 2.A]	8e/ 8g	.	(8g/L	Korn-	Paar	.
.	[4d/ [4f	.	8f/J)	.	.	.
.	.	.	8f/	-feld	hin-	.
.	4d/] 4f]	.	4.f/	gehn,	-ein,	.
!	!	!LO:DY:rj	!	!	!	!
.	8d/ 8f	pp	.	.	.	.
!!LO:LB:g=original
=9	=9	=9	=9	=9	=9	=9
*	*^	*	*	*	*	*
!	!	!	!LO:DY:rj	!	!	!	!
[2.D\ [2.A	(4b/	[4.f\	pp	2.r	.	.	.
.	8a/)	.	.	.	.	.	.
.	(8a/L	8f\L]	.	.	.	.	.
.	8g/	(<8e\	.	.	.	.	.
.	8a/J)	8f\J)	.	.	.	.	.
=10	=10	=10	=10	=10	=10	=10	=10
4.D\] 4.A]	8g/	8e\	.	4r	.	.	.
.	[4f/	[4d\	.	.	.	.	.
.	.	.	.	8r	.	.	.
4.BB\ 4.G#X	8f/]	4.d\]	sf	8r	.	.	.
.	4e/	.	.	8r	.	.	.
*	*	*	*	*	*	*ij	*
!	!	!	!	!	!	!	!LO:DY:b:rj
.	.	.	.	8e/	Mit	Mit	p
*	*v	*v	*	*	*	*	*
=11	=11	=11	=11	=11	=11	=11
[2.AA\ [2.A	(4c/ 4e 4a	p	8a/	hei-	hei-	.
.	.	.	8a/	-sa	-sa	.
.	8d\ 8e 8b	.	8b\	und	und	.
.	4c/ 4e 4a	.	4a/	ha	ha	.
.	8B/) 8e 8g#X	.	8g#X/	und	und	.
=12	=12	=12	=12	=12	=12	=12
((4AA\] 4A]	(8c\L 8e 8a	.	8a/	juch-	juch-	.
.	8d\ 8e 8b	.	8b\	-hei-	-hei-	.
!	!	!	!	!	!	!LO:HP:a:t=cresc
8GG\)) 8G	8e\J 8a 8cc	.	8cc\	-sa	-sa	<
4.FF#X\ 4.F#X	(8a\L) 8cc 8ee	<	8ee\	tra-	tra-	.
.	8a\) 8cc 8dd#X	[	8dd#X\	-la,	-la,	.
.	8a'\J 8cc 8dd#	.	8dd#\	Zur	Zur	.
*	*	*	*	*	*Xij	*
!!LO:LB:g=original
=13	=13	=13	=13	=13	=13	=13
*	*^	*	*	*	*	*
!	!	!	!LO:DY:rj	!	!	!	!LO:DY:b:rj
(4GG\ 4G	(8dd#X/L	4b\	f	(8dd#X\L	Ma-	.	f
.	8ee/	.	.	8ee\J)	.	.	.
8FF#X\) 8F#X	8ff#X/J)	8b\	.	8ff#X\	-ien-	.	.
(8EE\L 8E	(4gg/	(8b\L 8ee	.	4gg\	-zeit,	.	.
8DD\ 8D	.	8g\) 8b	.	.	.	.	.
8CC\J) 8C	8ee/)	8g\J 8cc	.	8ee\	der	.	.
*	*v	*v	*	*	*	*	*
=14	=14	=14	=14	=14	=14	=14
8AA\ 8A	(8.e\L 8.f#X 8.cc	.	8.cc\	lus-	.	.
4BB\ 4B	.	.	.	.	.	.
.	16d#X\K 16f# 16b	.	16b\	-ti-	.	.
.	8B\J) 8d# 8a	.	8a/	-gen	.	.
(8EE\L 8E	(8B\L 8e 8g	.	16g/	paa-	.	.
.	.	.	16e/	-re-	.	.
8GG\J) 8G	8B\J) 8e	.	8e/	-zeit,	.	.
!	!	!	!	!	!	!LO:DY:b
8r	8r	.	8e/	Wann	.	p
=15	=15	=15	=15	=15	=15	=15
*^	*	*	*	*	*	*
(<4B\	16d#X/ 16f#X	16r	.	4b\	Vö-	/Vö-	.
.	16ryy	16B/ 16d 16f#X	.	.	.	.	.
.	8ryy	16b\LL 16dd#X 16ff#X	.	.	.	.	.
.	.	16b\JJ 16dd# 16ff#	.	.	.	.	.
8A\	2ryy	8bb\ 8ddd#X 8fff#X	.	8dd#X\	-gel	-gel	.
4G#X\ 4B 4e	.	(4ee\ 4bb 4eee	.	4ee\	sin-	sin-	.
8A\) 8c#X 8e	.	8ee\) 8aa 8ccc#X	.	8cc#X\	-gen	-gen	.
*v	*v	*	*	*	*	*	*
=16	=16	=16	=16	=16	=16	=16
*	*^	*	*	*	*	*
(4F#X:\	4b:/ 4dd#X: 4bb:	4B:\ 4d#X: 4a:	.	8b\	tir-	tir-	.
.	.	.	.	8b\	-li-	-li-	.
8D#X:\)	8b\ 8ff#y 8aa	8B:\ 8f#X: 8a:	.	8a/	-re-	-re-	.
4E\	(<8a/L 8b 8aa	4B\ 4e	.	8a/	-li-	-li-	.
.	8g#X/J) 8ee 8gg#X	.	.	8g#X/	-rei,	-rei,	.
8G#X\ 8B 8e	8r	8ryy	.	8e/	Wann	Wann	.
*	*v	*v	*	*	*	*	*
!!LO:PB:g=original
=17	=17	=17	=17	=17	=17	=17
*^	*	*	*	*	*	*
*	*	*	*	*	*	*ij	*
4.d#X/ 4.f#X	(>8B\L	16r	.	(8b\L	Vö-	Vö-	.
.	.	16B'/ 16d#X 16f#X	.	.	.	.	.
.	8A#X\	16b'\LL 16dd#X 16ff#X	.	8cc#X\J)	.	.	.
.	.	16b'\J 16dd# 16ff#	.	.	.	.	.
.	8An\J)	8bb\J 8ddd#X 8fff#X	.	8dd\	-gel	-gel	.
4.B/ 4.e	4G#X\	(8ff#\L 8fff#	.	(8ff#X\L	sin-	sin-	.
.	.	8ee\ 8eee	.	8ee\J)	.	.	.
.	8Gn\	8cc#X\J) 8ccc#X	.	8cc#\	-gen	-gen	.
*v	*v	*	*	*	*	*	*
=18	=18	=18	=18	=18	=18	=18
.	8qa/	.	.	.	.	.
(<8F#X\L 8B 8d#X	(8b\L 8bb	.	8b\	tir-	tir-	.
8E\ 8B 8e	8.cc#X\ 8.ccc#X	.	8.cc#X\	-li-	-li-	.
8D#X\J) 8A 8f#X	.	.	.	.	.	.
.	16a\Jk) 16aa	.	16a/	-re-	-re-	.
(8C#X\L 8c#X	(>8a\L 8ee 8aa	.	8a/	-li-	-li-	.
8BB\ 8B	8g#X\ 8ee 8gg#X	.	8g#X/	-rei	-rei	.
8AA\J) 8A	8d#X\J) 8f 8b	.	8r	.	.	.
=19	=19	=19	=19	=19	=19	=19
*	*^	*	*	*	*	*
*	*	*^	*	*	*	*	*
!	!	!	!	!	!LO:TX:a:t=ac-cele-ran-do.:ext=cd:problem=text with extention lines	!	!	!
!	!	!	!	!LO:DY:rj	!	!	!	!LO:DY:b:rj
(>4G#X\	[4.b/	[4.e\	8rg	p	[4.b\	Süs-	Süs-	p
.	.	.	8rg	.	.	.	.	.
8F#X\	.	.	8a\	.	.	.	.	.
4E\	4g#X/ 4b]	4e\]	8ryy	<	4b\]	.	.	.
.	.	.	4ryy	.	.	.	.	.
8D#X\)	8g#/ 8b#X	8f#X\	.	[	8b#X\	-se	-se	.
*	*v	*v	*v	*	*	*	*	*
=20	=20	=20	=20	=20	=20	=20
(4.BB/	(>(<(<4.f#X/ 4.g#X 4.dd#X	>	4.dd#X\	Lie-	Lie-	.
4.C#X/)	4.e/))) 4.g# 4.cc#X	]	4.cc#X\	-be	-be	.
!!LO:LB:g=original
=21	=21	=21	=21	=21	=21	=21
*	*^	*	*	*	*	*
*	*	*^	*	*	*	*	*
(4A#X\	[4.cc#X/	[4.f#X\	8r	.	[4.cc#X\	liebt	liebt	.
.	.	.	8r	.	.	.	.	.
8G#X\	.	.	8b\	.	.	.	.	.
4F\	4a#X/ 4cc#]	4f#\]	8ryy	<	4cc#\]	.	.	.
.	.	.	4ryy	.	.	.	.	.
8E#X\)	8a#/ 8cc##X	8g#X\	.	[	8cc##X\	den	den	.
*	*v	*v	*v	*	*	*	*	*
=22	=22	=22	=22	=22	=22	=22
(4.C##X/	((4.g#X/ [4.a#X 4.ee#X	>	(4.ee#X\	Mai	Mai	.
4.D#X\)	4.f#X/)) 4.a#] 4.dd#X	]	4.dd#X\)	.	.	.
=23	=23	=23	=23	=23	=23	=23
!	!	!	!LO:TX:a:i:t=a Tempo.	!	!	!
[2.BB\ [2.B	[2.f#X\ [2.ddn	p	8r	.	.	.
.	.	.	8ddn\	Wann	Wann	.
.	.	.	8cc#X\	die	die	.
.	.	.	4b\	Vö-	Vö	.
.	.	.	8f#X/	-gel	gel	.
=24	=24	=24	=24	=24	=24	=24
*	*^	*	*	*	*	*
2.BB\] 2.B]	2.f#\] 2.dd]	8reee	.	(8g#X/L	lu-	lu-	.
.	.	8ddd\L	.	8a/J)	.	.	.
.	.	8ddd\J	.	8b\	-stig	-stig	.
.	.	(>8ccc#X\L	.	8a/	sin-	sin-	.
.	.	8bb\J)	.	8g#X/	-gen,	-gen,	.
.	.	8r	.	8r	.	.	.
*	*v	*v	*	*	*	*	*
!!LO:LB:g=original
=25	=25	=25	=25	=25	=25	=25
[2.E\ [2.d	[2.g#X\ [2.ff#X	p	8r	.	.	.
.	.	.	8ff#X\	Wann	Wann	.
.	.	.	8ee\	die	die	.
.	.	.	4dd\	Vö-	Vö	.
.	.	.	8a#X/	-gel	gel	.
=26	=26	=26	=26	=26	=26	=26
*	*^	*	*	*	*	*
2.E\] 2.d]	2.g#\] 2.ff#]	8reee	.	(8b\L	lu-	lu-	.
!	!	!LO:ACC:color=grey	!	!	!	!	!
.	.	8fff#X\L	.	8cc#X\J)	.	.	.
.	.	8fff#\J	.	8dd\	-stig	-stig	.
.	.	(>8eee\L	.	8cc#\	sin-	sin-	.
.	.	8ddd\J)	.	8b\	-gen,	-gen,	.
.	.	8r	.	8r	.	.	.
*	*v	*v	*	*	*	*	*
=27	=27	=27	=27	=27	=27	=27
!	!	!LO:DY:rj	!	!	!	!LO:DY:b:rj
2.d\	2.e\ 2.g#X 2.b	p	[4.b\	Süs-	Süs-	p
.	.	.	(8b\L]	.	.	.
.	.	.	8cc\J)	.	.	.
.	.	.	8dd\	-se	-se	.
=28	=28	=28	=28	=28	=28	=28
2.c#X\	2.e\ 2.a 2.cc#X	.	(4.ff\	Lie-	Lie-	.
.	.	.	4ee\)	.	.	.
.	.	.	8a/	-be	-be	.
!!LO:LB:g=original
=29	=29	=29	=29	=29	=29	=29
.	.	.	(16qqb/LL	.	.	.
.	.	.	16qqcc#X/JJ)	.	.	.
*	*	*	*2\right	*	*	*
2.B\	2.f#X\ 2.a 2.dd	sf	[2.b\	liebt	liebt	.
=30	=30	=30	=30	=30	=30	=30
(4.e\	[<4.e\ [<4.g#X [>4.dd	.	4.b\_	.	.	.
8E\)	8e\] 8g#] 8dd]	.	4b\]	.	.	.
8r	8r	.	.	.	.	.
8r	8r	.	8cc\	den	den	.
=31	=31	=31	=31	=31	=31	=31
*^	*^	*	*	*	*	*
8r	[4.AA\	4r	8r	.	[2.cc#X\	Mai	Mai	.
*	*	*	*	*	*	*	*Xij	*
8E/L 8A	.	.	8c#X\L 8e 8a 8cc#X	.	.	.	.	.
8E/J 8A	.	8r	8c#\J 8e 8a 8cc#	.	.	.	.	.
8F#X/ 8A	8AA\]	8r	8c#\ 8e 8a 8cc#	.	.	.	.	.
8A/L 8f#X 8a	8r	8cc#\L 8ff#X 8aa 8ccc#X	4ryy	.	.	.	.	.
8A/J 8f# 8a	8r	8cc#\J 8ff# 8aa 8ccc#	.	.	.	.	.	.
*v	*v	*	*	*	*	*	*	*
=32	=32	=32	=32	=32	=32	=32	=32
2.A\ 2.e 2.a	(<8ccc#X/L	2.cc#X\ 2.ee 2.aa	.	4.cc#\_	.	.	.
.	8.fff#X/	.	.	.	.	.	.
.	16eee/Jk)	.	.	.	.	.	.
.	(<8eee/L	.	.	8cc#\]	.	.	.
.	8ccc#/J)	.	.	8r	.	.	.
.	8r	.	.	8r	.	.	.
*	*v	*v	*	*	*	*	*
!!LO:LB:g=original
=33:|!	=33:|!	=33:|!	=33:|!	=33:|!	=33:|!	=33:|!
*>C	*>C	*	*>C	*	*	*
*	*	*	*^	*	*	*
!	!	!LO:DY:rj	!	!	!	!	!LO:DY:b:rj
[2.AA\ [2.A	(4c\ 4e 4a	p	4a/	4c\	San-	.	p
.	8d\ 8e 8b	.	8b/	8d\	-gen	.	.
.	4c/ 4e 4a	.	4a/	4c\	die-	.	.
.	8B/) 8e 8g#X	.	8g#X/	8B\	-se	.	.
=34	=34	=34	=34	=34	=34	=34	=34
2.AA\] 2.A]	(8c\L 8e 8a	.	(8a/L	(8c\L	Me-	.	.
.	8d\ 8e 8b	<	8b/J)	8e\J)	.	.	.
.	8e\J) 8a 8cc	[	8cc/	8a\	-lo-	.	.
.	(4a\ 4cc 4ee	>	4ee/	4cc\	-dei,	.	.
.	8e\) 8a 8cc	]	8cc/	8a\	Wie's	.	.
=35	=35	=35	=35	=35	=35	=35	=35
*	*^	*	*	*	*	*	*
!	!	!	!	!LO:TX:t=P:problem=tekst nad nutami	!	!	!	!
[2.D\ [2.A	(4b/	[4.f\	sf	4b/	[4.f\	Le-	Le-	.
.	8a/)	.	.	8a/	.	-ben	.	.
.	(8a/L	8f\L]	.	(8a/L	(8f\L]	nur'	.	.
.	8g/	8e\	.	8g/J)	8e\J)	.	-ben	.
.	8a/J)	8f\J	.	8a/	8f\	ne	nur	.
*	*v	*v	*	*	*	*	*	*
=36	=36	=36	=36	=36	=36	=36	=36
2.D\] 2.A]	8e/ 8g	.	(8g/L	(8e\L	Blu	Blu	.
.	[4d/ [4f	.	8f/J)	8d\J)	.	.	.
.	.	.	8f/	8d\	-me	.	.
.	4d/] 4f]	.	4.f/	4.d\	sei	.	.
!	!	!LO:DY:rj	!	!	!	!	!
.	8d/ 8f	pp	.	.	.	.	.
*	*	*	*v	*v	*	*	*
!!LO:PB:g=original
=37	=37	=37	=37	=37	=37	=37
*	*^	*	*	*	*	*
!	!	!	!LO:DY:rj	!	!	!	!
[2.D\ [2.A	(4b/	[4.f\	pp	2.r	.	.	.
.	8a/)	.	.	.	.	.	.
.	(8a/L	8f\L]	.	.	.	.	.
.	8g/	8e\	.	.	.	.	.
.	8a/J)	8f\J	.	.	.	.	.
*	*v	*v	*	*	*	*	*
=38	=38	=38	=38	=38	=38	=38
*	*	*	*^	*	*	*
4.D\] 4.A]	(>8e/ 8g	.	4r	4ryy	.	.	.
.	[4d/) [4f	<	.	.	.	.	.
.	.	.	8r	8ryy	.	.	.
!	!	!	!	!	!	!	!LO:DY:b
4.BB\ 4.G#X	(>8d/] 8f]	.	8r	8ryy	.	.	p
.	4e/)	[ p	8r	8ryy	.	.	.
.	.	.	8e/	8d\	Mit	.	.
=39	=39	=39	=39	=39	=39	=39	=39
[2.AA\ [2.A	4c/ 4e 4a	.	8a/	8c\	heis-	.	.
.	.	.	8a/	8c\	-sa	.	.
.	8d\ 8e 8b	.	8b/	8d\	und	.	.
.	4c/ 4e 4a	.	4a/	4c\	ha	.	.
.	8B/ 8e 8g#X	.	8g#X/	8B\	und	.	.
=40	=40	=40	=40	=40	=40	=40	=40
*	*	*^	*	*	*	*	*
!	!	!	!LO:HP:b=2	!	!	!	!	!
4AA\] 4A]	(8c\L 8e 8a	.	<	8a/	8c\	juch-	.	.
.	8d\ 8e 8b	<	.	8b/	8d\	-hei-	.	.
8GG\ 8G	8e\J 8a 8cc	.	[	8cc/	8a\	-sa	.	.
!	!	!	!LO:HP:b=2	!	!	!	!	!
4.FF#X\ 4.F#X	8a\L 8cc 8ee	.	>	8ee/	8cc\	tra-	.	.
.	8a\ 8cc 8dd#X	.	.	8dd#X/	8cc\	-la,	.	.
.	8a\J) 8cc 8dd#	[	]	8dd#/	8cc\	zur	.	.
*	*	*v	*v	*	*	*	*	*
!!LO:LB:g=original
=41	=41	=41	=41	=41	=41	=41	=41
*	*^	*	*	*	*	*	*
!	!	!	!	!	!	!	!	!LO:DY:b:rj
(4GG\ 4G	(8dd#X/L	4b\	f	(<8dd#X/L	4b\	ma-	.	f
.	8ee/	.	.	8ee/J)	.	.	.	.
!	!	!	!	!LO:SIC:v:s=8ff#/	!	!	!	!
8FF#X\) 8F#X	8ff#X/J)	8b\ 8dd#	.	8ff/	8dd#X\	-ien-	.	.
(8EE\L 8E	4.ryy	(8b\L 8ee 8gg	.	4gg/	4ee\	-zeit,	.	.
!	!	!	!LO:HP:b=2	!	!	!	!	!
8DD\) 8D	.	8g\) 8b 8ee	<	.	.	.	.	.
8CC'\J 8C	.	8g'\J 8cc 8ee	.	8ee/	8g\	der	.	.
*	*v	*v	*	*	*	*	*	*
=42	=42	=42	=42	=42	=42	=42	=42
(8.AA\L 8.A	(8.f#X\L 8.cc	[	8.cc/	8.e\	lu-	.	.
!	!	!LO:HP:b=2	!	!	!	!	!
16BB\K) 16B	16d#X\K 16f# 16b	>	16b/	16d#X\	-sti-	.	.
8BB\J 8B	8B\J) 8d# 8a	]	8a/	8f#X\	-gen	.	.
(8EE\L 8E	(>8B/L 8e 8g	.	16g/	16e\	paa-	.	.
.	.	.	16e/	16e\	-re-	.	.
8GG\J) 8G	8B/J) 8e	.	8e/	8e\	-zeit	.	.
!	!	!	!	!LO:TX:t=P:problem=tekst nad nutami	!	!	!
8r	8r	p	8e/	8e\	Wann	.	.
=43	=43	=43	=43	=43	=43	=43	=43
*^	*	*	*	*	*	*	*
!	!	!	!	!	!	!	!	!LO:DY:b:rj
16d#X/ 16f#X	(4B\	16r	.	4b/	4d#X\	Vö-	.	p
16ryy	.	16B/ 16d#X 16f#X	.	.	.	.	.	.
8ryy	.	16b\LL 16dd#X 16ff#X	.	.	.	.	.	.
.	.	16b\JJ 16dd# 16ff#	<	.	.	.	.	.
2ryy	8A\)	8bb\ 8ddd#X 8fff#X	.	8dd#X/	8f#X\	-gel	.	.
.	(<4G#X\ 4B 4e	(4ee\ 4bb 4eee	.	4ee/	4e\	sin-	.	.
.	8A\) 8c 8e	8ee\) 8aa 8ccc#X	[[	8cc#X/	8e\	-gen	.	.
*v	*v	*	*	*	*	*	*	*
=44	=44	=44	=44	=44	=44	=44	=44
(<4F#X:\ 4B>: 4d#X>: 4a>:	(4b\ 4dd#X 4bb	.	8b/	8d#X\	tir-	.	.
.	.	.	8b/	8d#\	-li-	.	.
8D#X\) 8d#X	8b\) 8ff#X 8aa	>	8a/	8f#X\	-re-	.	.
(<4E:\ 4B: 4e:	(8a\L 8b 8aa	]	8a/	8f#\	-li-	.	.
.	8g#X\J) 8ee 8gg#X	.	8g#X/	8e\	-rei	.	.
8G#X\) 8B 8e	8r	.	8e/	8e\	.	.	.
!!LO:LB:g=original
=45	=45	=45	=45	=45	=45	=45	=45
*^	*	*	*	*	*	*	*
16d#X/ 16f#X	(>8B\L	16r	.	(8b/L	(8d#X\L	Vö-	.	.
16ryy	.	16B/ 16d#X 16f#X	.	.	.	.	.	.
8ryy	8A#X\	16b\LL 16dd#X 16ff#X	.	8cc#X/J)	8f#X\J)	.	.	.
.	.	16b\JJ 16dd# 16ff#	.	.	.	.	.	.
2ryy	8An\J)	8bb\ 8ddd#X 8fff#X	.	8dd#X/	8b\	-gel	.	.
.	(<4G#X\ 4B 4e	(>8ff#\L 8fff#	.	(8ff#X/L	4b\	sin-	.	.
.	.	8ee\ 8eee	.	8ee/J)	.	.	.	.
.	8Gn\) 8c 8e	8cc#X\J) 8ccc#X	.	8cc#/	8e\	-gen	.	.
*v	*v	*	*	*	*	*	*	*
=46	=46	=46	=46	=46	=46	=46	=46
(<8F#X:\L 8B>: 8d#X>: 8a>:	(8b\L 8bb	.	8b/	8d#X\	tir-	.	.
8E\ 8B 8e	8.cc#X\ 8.ccc#X	.	8.cc#X/	8.e\	-li-	.	.
8D#X\J) 8B 8f#X	.	.	.	.	.	.	.
.	16a\Jk) 16aa	.	16a/	16f#X\	-re-	.	.
(8C#X\L 8c#X	(8a\L 8ee 8aa	.	8a/	8e\	-li-	.	.
8BB\ 8B	16g#X\L) 16ee 16gg#X	.	8g#X/	8e\	-rei	.	.
.	16e\J 16g# 16b	.	.	.	.	.	.
8AA\J) 8A	8d\J 8f#X	.	8r	8ryy	.	.	.
=47	=47	=47	=47	=47	=47	=47	=47
*	*^	*	*	*	*	*	*
*	*	*^	*	*	*	*	*	*
!	!	!	!	!LO:DY:rj	!	!	!	!	!LO:DY:b
(4G#X\	([4.b/	4b\	[<4.e\	p	[4.b/	(4b\	süs-	.	p
8F#X\	.	8a\	.	.	.	8a\	.	.	.
!	!LO:SIC:v:n=2:s=4g#/	!	!	!	!	!	!	!	!
4E\	4g/ 4b]	8ryy	4e\]	.	4b/]	4g#X\	.	.	.
.	.	4ryy	.	.	.	.	.	.	.
8D#X\)	8f#X/) 8g#X 8b#X	.	8ryy	.	8b#X/	8f#X\)	-se	.	.
*	*v	*v	*v	*	*	*	*	*	*
=48	=48	=48	=48	=48	=48	=48	=48
(4.BB#X/	(>(<4.f#X\ [<4.g#X 4.dd#X	.	4.dd#X/	4.f#X\	Lie-	.	.
4.C#X/)	4.e\)) 4.g#] 4.cc#X	.	4.cc#X/	4.e\	-be	.	.
!!LO:LB:g=original
=49	=49	=49	=49	=49	=49	=49	=49
*	*^	*	*	*	*	*	*
*	*	*^	*	*	*	*	*	*
(4A#X\	([4.cc#X/	[4.f#X\	8ryy	.	[4.cc#X/	4cc#\	liebt	.	.
.	.	.	8ryy	.	.	.	.	.	.
8G#X\	.	.	8b\	.	.	8b\	.	.	.
!	!	!	!	!	!	!	!	!	!LO:HP:a:t=cresc
4F#X\	4a#X/ 4cc#]	4f#\]	8ryy	.	4cc#/]	4a#X\	.	.	<
.	.	.	4ryy	.	.	.	.	.	.
!	!	!	!	!LO:HP:t=crescendo	!	!	!	!	!
8E#X\)	8g#X/) 8a# 8cc##X	8ryy	.	<	8cc##X/	8g#X\	den	.	.
*	*	*v	*v	*	*	*	*	*	*
=50	=50	=50	=50	=50	=50	=50	=50	=50
(4.C##X/	(>4.ee#X/	(<4.g#X\ [<4.a#X	.	(4.ee#X/	(4.g#X\	Mai	.	.
4.D#X/)	4.f#X/) 4.a#] 4.dd#X)	8ryy	.	4.dd#X/)	8f#X\)	.	.	.
.	.	4ryy	.	.	8f#\	wenn	.	.
.	.	.	.	.	8f#\	di	.	.
*	*v	*v	*	*	*	*	*	*
=51	=51	=51	=51	=51	=51	=51	=51
!	!	!LO:DY:rj	!	!	!	!	!
[2.BB\ [2.B	[2.f#X\ [2.ddn	p	8r	[2.f#\	.	Vö-	.
.	.	.	8ddn/	.	Wenn	.	p
.	.	.	8cc#X/	.	die	.	.
.	.	.	4b/	.	Vö-	.	.
.	.	.	8f#X/	.	-gel	.	.
=52	=52	=52	=52	=52	=52	=52	=52
*	*^	*	*	*	*	*	*
2.BB\] 2.B]	2.f#\] 2.dd]	8reee	.	(8g#X/L	4.f#\]	lu-	.	.
.	.	8ddd'>\L	pp	8a/J)	.	.	.	.
.	.	8ddd'>\J	.	8b/	.	-stig	.	.
!	!	!LO:ACC:color=grey	!	!	!	!	!	!
.	.	(>8ccc#X\L	.	8a/	8f#y\	sin-	-gel	.
.	.	8bb\J)	.	8g#X/	8f#X\	-gen	wenn	.
.	.	8ree	.	8r	8f#\	.	die	.
*	*v	*v	*	*	*	*	*	*
!!LO:LB:g=original
=53	=53	=53	=53	=53	=53	=53	=53
!LO:TX:a:t=ral	!LO:TX:a:t=ral	!	!	!	!	!	!
[2.E\ [2.d	[2.g#X\ [2.ff#X	.	8r	[2.g#X\	.	Vö-	.
.	.	.	8ff#X/	.	wenn	.	.
.	.	.	8ee/	.	die	.	.
.	.	.	4dd/	.	Vö-	.	.
.	.	.	8a#X/	.	-gel	.	.
=54	=54	=54	=54	=54	=54	=54	=54
*	*^	*	*	*	*	*	*
2.E\] 2.d]	2.g#\] 2.ff#]	8reee	.	(<8b/L	4.g#\]	lu-	.	.
.	.	8fff#X'>\L	.	8cc#X/J)	.	.	.	.
.	.	8fff#'>\J	.	8dd/	.	-stig	.	.
.	.	(>8eee\L	.	8cc#/	8g#X\	sin-	-gel	.
.	.	8ddd\J)	.	8b/	8g#\	-gen	lu-	.
.	.	8ree	.	8r	8g#\	.	-stig	.
*	*v	*v	*	*	*	*	*	*
=55	=55	=55	=55	=55	=55	=55	=55
!	!LO:TX:b:i:t=a Tempo	!	!	!	!	!	!
(2.d\	(>(>[<2.e/ 2.g#X 2.b	.	[4.b/	4g#X\	süs-	sin-	.
.	.	.	.	8g#\	.	-gen	.
.	.	.	(8b/L]	(8g#\L	süs-	.	.
.	.	.	8cc/J)	8a\J)	.	süs-	.
.	.	.	8dd/	8b\	-se	-se	.
=56	=56	=56	=56	=56	=56	=56	=56
2.c#X\)	2.e/])) 2.a 2.cc#X	.	(4.ff#X/	(4.a\	Lie-	Lie-	.
.	.	.	4ee/)	4cc#X\)	.	.	.
.	.	.	8a/	8c#X\	-be	-be	.
!!LO:PB:g=original
=57	=57	=57	=57	=57	=57	=57	=57
.	.	.	(<16qqb/LL	(>16qqd\LL	.	.	.
.	.	.	16qqcc#X/JJ)	16qqe\JJ)	.	.	.
2.B\	2.f#X\ 2.a 2.dd	.	[2.b/	2.d\	liebt	.	.
=58	=58	=58	=58	=58	=58	=58	=58
(4.E\	[<4.e\ [<4.g#X [>4.dd	.	4.b/_	[4.e\	.	.	.
8E\)	8e\] 8g#] 8dd]	.	4b/]	4e\]	.	.	.
8r	8r	.	.	.	.	.	.
8r	8r	.	8b#X/	8g#X\	den	.	.
=59	=59	=59	=59	=59	=59	=59	=59
*^	*	*	*	*	*	*	*
!	!	!	!LO:DY:rj	!	!	!	!	!
8r	[4.AA\	8r	f	[2.cc#X/	[2.a\	Mai	.	.
8E/L 8A	.	8c#X'\L 8e 8a 8cc#X	.	.	.	.	.	.
8E/J 8A	.	8c#'\J 8e 8a 8cc#	.	.	.	.	.	.
8F#X/ 8A	8AA\]	8c#\ 8e 8a 8cc#	.	.	.	.	.	.
8c#X\L 8f#X 8a	8r	8cc#\L 8ff#X 8aa 8ccc#X	.	.	.	.	.	.
8A\J 8c# 8f# 8a	8r	8cc#\J 8ff# 8aa 8ccc#	.	.	.	.	.	.
*v	*v	*	*	*	*	*	*	*
=60	=60	=60	=60	=60	=60	=60	=60
*	*^	*	*	*	*	*	*
2.A\ 2.e 2.a	(<8ccc#X/L	2.cc#X\ 2.ee 2.aa	.	8cc#/]	8a\]	.	.	.
.	8.fff#X/	.	.	8r	8ryy	.	.	.
.	.	.	.	8r	2ryy	.	.	.
.	16eee/Jk)	.	.	.	.	.	.	.
.	(<8eee/L	.	.	4r	.	.	.	.
.	8ccc#/J)	.	.	.	.	.	.	.
.	8r	.	.	8r	.	.	.	.
*	*v	*v	*	*	*	*	*	*
*	*	*	*v	*v	*	*	*
!!LO:LB:g=original
=61	=61	=61	=61	=61	=61	=61
4AA\ 4A	8r	.	2.r	.	.	.
.	8c#X\L 8e 8a 8cc#X	.	.	.	.	.
8GG#X\ 8G#X	8c#\J 8e#X 8b 8cc#	.	.	.	.	.
8FF#X'\ 8F#X	8c#\ 8f 8a 8cc#	.	.	.	.	.
4EE\ 4E	4e#\ 4g#X 4dd 4ee	sf	.	.	.	.
=62	=62	=62	=62	=62	=62	=62
8AAA/ 8AA	8r	ff	2.r	.	.	.
[<4E\ [<4A [<4c#X [>4e	[<4a\ [<4cc#X [<4ee [>4aa	.	.	.	.	.
8E\] 8A] 8c#] 8e]	8a\] 8cc#] 8ee] 8aa]	.	.	.	.	.
8r	4r	.	.	.	.	.
8r	.	.	.	.	.	.
==	==	==	==	==	==	==
*-	*-	*-	*-	*-	*-	*-
!!!system-decoration: s1{(s2,s3)}
!!!RDF**kern: < = below
!!!RDF**kern: > = above
!!!ENC: Anastazja Marusiak
!!!END: 2021-11-03
!!!ENC: Marta Chmielewska
!!!END: 2021-11-05
!!!YEC: Copyright 2022 Narodowy Instytut Fryderyka Chopina (https://polishscores.org)
!!!YEM: License CC-BY-4.0 (https://creativecommons.org/licenses/by/4.0)
